X:1
T:En alte Plaffeyer
L:1/16
Q:70
M:2/4
K:C
G2c2 cde2 | defg a2a2 | gggg gfd2 | eeee edc2 | G2c2 cde2 | defg a2a2 | ggg2 gfde | c2c2 c2z2
G2c2 cde2 | defg a2a2 | gggg gfd2 | eeee edc2 | G2c2 cde2 | defg a2a2 | ggg2 gfde | c2c2 c2z2